X: 16
T: Earl's Chair, The
C: Pakie Moloney
Z: Sean Perry
S: https://thesession.org/tunes/221#setting50897
R: reel
M: 4/4
L: 1/8
K: Dmaj
|:B2Bd BAFA|B2Bd BAFB|AF^EF DF=EF|AFdB ADFA|
B2Bd BAFA|B2Bd BAFB|AFAB dcdf|1 edef d3c:|2 edef d2A/B/d||
|:e3f d2A/B/d|edef dBA2|edef dcde|fedB ADFA|
e2ef eB B/B/B|gB B/B/B defg|afbf afeg|fedB ADFA:|

